modules/feathericon/icons/calendar.svg

<?xml version="1.0" encoding="UTF-8"?>
<svg width="14px" height="14px" viewBox="0 0 14 14" version="1.1" xmlns="http://www.w3.org/2000/svg" xmlns:xlink="http://www.w3.org/1999/xlink">
    <!-- Generator: sketchtool 48.1 (47250) - http://www.bohemiancoding.com/sketch -->
    <title>calendar</title>
    <desc>Created with sketchtool.</desc>
    <defs></defs>
    <g id="web-app" stroke="none" stroke-width="1" fill="none" fill-rule="evenodd">
        <g id="calendar" fill="#000000">
            <path d="M14,3 L14,13 C14,13 14,14 13,14 L1,14 C1.18155439e-08,14 1.18155439e-08,13 1.18155439e-08,13 L1.18155439e-08,3 C1.18155439e-08,3 1.18155439e-08,2 1,2 L3,2 L3,0.999999999 C3,0.999999999 3.06891555,1.92593757e-17 4,1.92651102e-17 C4,1.92651102e-17 5,1.1365461e-17 5,1.46979357e-17 C5.93333333,1.27757663e-15 6,0.999999999 6,0.999999999 L6,2 L8,2 L8,0.999999999 C8,0.999999999 8,1.38777878e-17 9,1.38777878e-17 L9.99803331,1.38777878e-17 C11,1.38777878e-17 11,0.999999999 11,0.999999999 L11,2 L13,2 C14,2 14,3 14,3 Z M1,4 L13,4 L13,13 L1,13 L1,4 Z M3.00000001,6 L3.00000001,8 L5.00000001,8 L5.00000001,6 L3.00000001,6 Z M6.00000001,6 L6.00000001,8 L8.00000001,8 L8.00000001,6 L6.00000001,6 Z M9.00000001,6 L9.00000001,8 L11,8 L11,6 L9.00000001,6 Z M3.00000001,9 L3.00000001,11 L5.00000001,11 L5.00000001,9 L3.00000001,9 Z M6.00000001,9 L6.00000001,11 L8.00000001,11 L8.00000001,9 L6.00000001,9 Z M9.00000001,9 L9.00000001,11 L11,11 L11,9 L9.00000001,9 Z M9,1 L10,1 L10,3 L9,3 L9,1 Z M4,1 L5,1 L5,3 L4,3 L4,1 Z" id="Shape"></path>
        </g>
    </g>
</svg>

<svg width="14" height="14" xmlns="http://www.w3.org/2000/svg"><path d="M14 3v10s0 1-1 1H1c-1 0-1-1-1-1V3s0-1 1-1h2V1s.069-1 1-1h1c.933 0 1 1 1 1v1h2V1s0-1 1-1h.998C11 0 11 1 11 1v1h2c1 0 1 1 1 1zM1 4h12v9H1V4zm2 2v2h2V6H3zm3 0v2h2V6H6zm3 0v2h2V6H9zM3 9v2h2V9H3zm3 0v2h2V9H6zm3 0v2h2V9H9zm0-8h1v2H9V1zM4 1h1v2H4V1z" fill="#000" fill-rule="evenodd"/></svg>
